X: 152
T: Kitty of Coleraine   #2
R: jig
%S: s:2 b:19(5+4)
B: O'Neill's 1850 #152
Z: henrik.norbeck@mailbox.swipnet.se
N: Compacted via repeats and multiple endings [JC]
N: Compacted by using labels and play order [JC]
P: Play A1A2 BA2
Q: "Gaily"
M: 6/8
L: 1/8
K: D
"^A"[|] (A/G/) | (FAd) (dfa) | e(g/f/)(e/d/) (ce)A | (df)a (dg)b |1 (b/a/)(g/f/)(e/d/) fe :|2 (A>Bc) "^fine"d2 |]
"^B"[| (f/g/) | afd ecA | (af)d (ec)A | (af)d (f/e/)(d/c/)(B/A/) | Ba^g Ha2 "^->A2"y|]
